products/org.csstudio.iter.css.product/SymbolLibrary_full_hd/SVG/Fluid/Valves/VG On-Off 3-way Bottom Inlet Valve 7.svg

<?xml version="1.0" encoding="UTF-8" standalone="no"?>
<!--
/*******************************************************************************
* Copyright (c) 2010-2017 ITER Organization. 
* All rights reserved. This program and the accompanying materials
* are made available under the terms of the Eclipse Public License v1.0
* which accompanies this distribution, and is available at
* http://www.eclipse.org/legal/epl-v10.html
******************************************************************************/
-->
<svg
   xmlns:dc="http://purl.org/dc/elements/1.1/"
   xmlns:cc="http://creativecommons.org/ns#"
   xmlns:rdf="http://www.w3.org/1999/02/22-rdf-syntax-ns#"
   xmlns:svg="http://www.w3.org/2000/svg"
   xmlns="http://www.w3.org/2000/svg"
   id="svg2"
   version="1.1"
   viewBox="0 0 50 50"
   height="50pt"
   width="50pt">
  <metadata
     id="metadata25">
    <rdf:RDF>
      <cc:Work
         rdf:about="">
        <dc:format>image/svg+xml</dc:format>
        <dc:type
           rdf:resource="http://purl.org/dc/dcmitype/StillImage" />
        <dc:title></dc:title>
      </cc:Work>
    </rdf:RDF>
  </metadata>
  <defs
     id="defs23" />
  <g
     transform="translate(-0.38477227,-1.0793581)"
     id="surface1">
    <path
       id="path5"
       d="m 1.347656,1.347656 0.027344,0 0,0.027344 -0.027344,0 z"
       style="fill:#ffffff;fill-opacity:1;fill-rule:evenodd;stroke:none" />
    <path
       id="path7"
       d="m 48.964844,48.964844 0.02734,0 0,0.02734 -0.02734,0 z"
       style="fill:#ffffff;fill-opacity:1;fill-rule:evenodd;stroke:none" />
    <path
       id="path9"
       transform="scale(0.996094,0.996094)"
       d="m 9.541176,17.529412 0,15.941176 m 0,0 15.937255,-7.972549 -15.937255,-7.968627"
       style="fill:#ffffff;fill-opacity:1;fill-rule:evenodd;stroke:#000000;stroke-width:1.35039997;stroke-linecap:round;stroke-linejoin:round;stroke-miterlimit:3.28571391;stroke-opacity:1" />
    <path
       id="path11"
       transform="scale(0.996094,0.996094)"
       d="m 24.956863,25.498039 15.952941,7.972549 0,-15.941176 -15.952941,7.968627"
       style="fill:#ffffff;fill-opacity:1;fill-rule:evenodd;stroke:#000000;stroke-width:1.35039997;stroke-linecap:round;stroke-linejoin:round;stroke-miterlimit:3.28571391;stroke-opacity:1" />
    <path
       id="path13"
       transform="scale(0.996094,0.996094)"
       d="m 25.262745,25.701961 -7.968627,15.937255 15.952941,0 z"
       style="fill:#ffffff;fill-opacity:1;fill-rule:evenodd;stroke:#000000;stroke-width:1.35039997;stroke-linecap:round;stroke-linejoin:round;stroke-miterlimit:3.28571391;stroke-opacity:1" />
    <path
       id="path15"
       transform="scale(0.996094,0.996094)"
       d="m 0.666667,25.498039 8.560784,0"
       style="fill:none;stroke:#000000;stroke-width:1.35039997;stroke-linecap:round;stroke-linejoin:round;stroke-miterlimit:3.28571391;stroke-opacity:1" />
    <path
       id="path17"
       transform="scale(0.996094,0.996094)"
       d="m 41.768627,25.498039 8.533334,0"
       style="fill:none;stroke:#000000;stroke-width:1.35039997;stroke-linecap:round;stroke-linejoin:round;stroke-miterlimit:3.28571391;stroke-opacity:1" />
    <path
       id="path19"
       transform="scale(0.996094,0.996094)"
       d="m 25.498039,41.792157 0,8.533333"
       style="fill:none;stroke:#000000;stroke-width:1.35039997;stroke-linecap:round;stroke-linejoin:round;stroke-miterlimit:3.28571391;stroke-opacity:1" />
  </g>
  <animate
     id="animate12"
     repeatCount="indefinite"
     fill="freeze"
     begin="0s"
     dur="1000ms"
     calcMode="discrete"
     values="1;0"
     attributeName="opacity" />
</svg>

<?xml version="1.0" encoding="UTF-8"?>
<!--
/*******************************************************************************
* Copyright (c) 2010-2018 ITER Organization.
* All rights reserved. This program and the accompanying materials
* are made available under the terms of the Eclipse Public License v1.0
* which accompanies this distribution, and is available at
* http://www.eclipse.org/legal/epl-v10.html
******************************************************************************/
-->
<svg xmlns="http://www.w3.org/2000/svg" xmlns:xlink="http://www.w3.org/1999/xlink" width="29pt" height="29pt" viewBox="0 0 29 29" version="1.1">
<g id="surface0">
<path style=" stroke:none;fill-rule:evenodd;fill:rgb(100%,100%,100%);fill-opacity:1;" d="M 0.554688 0.15625 L 0.570312 0.15625 L 0.570312 0.171875 L 0.554688 0.171875 Z M 0.554688 0.15625 "/>
<path style=" stroke:none;fill-rule:evenodd;fill:rgb(100%,100%,100%);fill-opacity:1;" d="M 27.953125 27.554688 L 27.96875 27.554688 L 27.96875 27.570312 L 27.953125 27.570312 Z M 27.953125 27.554688 "/>
<path style="fill-rule:evenodd;fill:rgb(100%,100%,100%);fill-opacity:1;stroke-width:1.3504;stroke-linecap:round;stroke-linejoin:round;stroke:rgb(0%,0%,0%);stroke-opacity:1;stroke-miterlimit:3.285714;" d="M 9.539382 17.529185 L 9.539382 33.470438 M 9.539382 33.470438 L 25.480636 25.496404 L 9.539382 17.529185 " transform="matrix(0.573149,0,0,0.573149,-0.221397,-0.621059)"/>
<path style="fill-rule:evenodd;fill:rgb(100%,100%,100%);fill-opacity:1;stroke-width:1.3504;stroke-linecap:round;stroke-linejoin:round;stroke:rgb(0%,0%,0%);stroke-opacity:1;stroke-miterlimit:3.285714;" d="M 24.955849 25.496404 L 40.910733 33.470438 L 40.910733 17.529185 L 24.955849 25.496404 " transform="matrix(0.573149,0,0,0.573149,-0.221397,-0.621059)"/>
<path style="fill-rule:evenodd;fill:rgb(100%,100%,100%);fill-opacity:1;stroke-width:1.3504;stroke-linecap:round;stroke-linejoin:round;stroke:rgb(0%,0%,0%);stroke-opacity:1;stroke-miterlimit:3.285714;" d="M 25.262543 25.700866 L 17.295323 41.64212 L 33.250208 41.64212 Z M 25.262543 25.700866 " transform="matrix(0.573149,0,0,0.573149,-0.221397,-0.621059)"/>
<path style="fill:none;stroke-width:1.3504;stroke-linecap:round;stroke-linejoin:round;stroke:rgb(0%,0%,0%);stroke-opacity:1;stroke-miterlimit:3.285714;" d="M 0.665713 25.496404 L 9.225873 25.496404 " transform="matrix(0.573149,0,0,0.573149,-0.221397,-0.621059)"/>
<path style="fill:none;stroke-width:1.3504;stroke-linecap:round;stroke-linejoin:round;stroke:rgb(0%,0%,0%);stroke-opacity:1;stroke-miterlimit:3.285714;" d="M 41.769476 25.496404 L 50.302374 25.496404 " transform="matrix(0.573149,0,0,0.573149,-0.221397,-0.621059)"/>
<path style="fill:none;stroke-width:1.3504;stroke-linecap:round;stroke-linejoin:round;stroke:rgb(0%,0%,0%);stroke-opacity:1;stroke-miterlimit:3.285714;" d="M 25.501082 41.792059 L 25.501082 50.324958 " transform="matrix(0.573149,0,0,0.573149,-0.221397,-0.621059)"/>
</g>
</svg>
